src/scalable/places-circle/default-folder-move.svg

<svg width="64" height="64" version="1.1" viewBox="0 0 64 64" xmlns="http://www.w3.org/2000/svg" xmlns:xlink="http://www.w3.org/1999/xlink">
 <defs>
  <style id="current-color-scheme" type="text/css">.ColorScheme-Text {
        color:#333333;
      }
      .ColorScheme-Highlight {
        color:#5294e2;
      }
  </style>
  <linearGradient id="a">
   <stop offset="0"/>
   <stop stop-opacity="0" offset="1"/>
  </linearGradient>
  <linearGradient id="d-3" x1="-197.1" x2="-196.91" y1="217.68" y2="219.36" gradientTransform="matrix(1.6035 -1.6035 1.6035 1.6035 21.799 -629.73)" gradientUnits="userSpaceOnUse" xlink:href="#a"/>
  <linearGradient id="linearGradient871" x1="-197.1" x2="-196.91" y1="217.68" y2="219.36" gradientTransform="matrix(1.6035 -1.6035 1.6035 1.6035 3.7996 -614.73)" gradientUnits="userSpaceOnUse" xlink:href="#a"/>
 </defs>
 <path class="ColorScheme-Highlight" d="m11.599 25.799c-0.66521 0-0.89277 0.6093-1.1989 1.1989h-1.8031a1.1981 1.1981 0 0 0-1.197 1.2027v4.1991h-1.2027c-0.66376 0-1.197 0.53324-1.197 1.197v19.204c0 0.66376 0.53324 1.1989 1.197 1.1989h33.604c0.66376 0 1.1989-0.53516 1.1989-1.1989v-21.603c0-0.66143-0.53563-1.197-1.2009-1.197h-1.1989v-1.7993a1.1981 1.1981 0 0 0-1.2027-1.2027h-16.2c-0.3515-0.56316-0.5318-1.1989-1.197-1.1989z" fill="currentColor" stroke-width=".98215"/>
 <path d="m11.599 25.799c-0.66521 0-0.89277 0.6093-1.1989 1.1989h-1.8031a1.1981 1.1981 0 0 0-1.197 1.2027v4.1991h13.702l0.69825-1.1989c0.33639-0.57072 0.53749-1.197 1.2027-1.197v-0.0038h15.598v-1.7993a1.1981 1.1981 0 0 0-1.2027-1.2027h-16.2c-0.3515-0.56316-0.5318-1.1989-1.197-1.1989z" fill="#000000" opacity=".2" stroke-width=".98215"/>
 <path d="m9.7996 28.798c-0.33293 0-0.60042 0.26749-0.60042 0.60042v3.002h11.903l0.69825-1.1989c0.33639-0.57072 0.53749-1.197 1.2027-1.197v-0.0038h13.798v-0.60233c0-0.33293-0.26749-0.60042-0.60042-0.60042z" fill="#ffffff" stroke-width=".98215"/>
 <rect x="12.2" y="26.397" width="7.2002" height="1.1981" ry=".60095" opacity=".25" stroke-width="3.7796" style="paint-order:stroke markers fill"/>
 <path d="m41 46.798-7.2012 7.2012h6.002c0.6646 0 1.1992-0.53657 1.1992-1.2012z" fill="url(#linearGradient871)" opacity=".1" stroke-width="2.2678" style="paint-order:stroke markers fill"/>
 <path class="ColorScheme-Highlight" d="m29.599 10.8c-0.66521 0-0.89277 0.6093-1.1989 1.1989h-1.8031a1.1981 1.1981 0 0 0-1.197 1.2027v4.1991h-1.2027c-0.66376 0-1.197 0.53324-1.197 1.197v19.204c0 0.66376 0.53324 1.1989 1.197 1.1989h33.604c0.66376 0 1.1989-0.53516 1.1989-1.1989v-21.603c0-0.66143-0.53563-1.197-1.2009-1.197h-1.1989v-1.7993a1.1981 1.1981 0 0 0-1.2027-1.2027h-16.2c-0.3515-0.56316-0.5318-1.1989-1.197-1.1989z" fill="currentColor" stroke-width=".98215"/>
 <path d="m29.599 10.8c-0.66521 0-0.89277 0.6093-1.1989 1.1989h-1.8031a1.1981 1.1981 0 0 0-1.197 1.2027v4.1991h13.702l0.69825-1.1989c0.33639-0.57072 0.53749-1.197 1.2027-1.197v-0.0038h15.598v-1.7993a1.1981 1.1981 0 0 0-1.2027-1.2027h-16.2c-0.3515-0.56316-0.5318-1.1989-1.197-1.1989z" fill="#000000" opacity=".2" stroke-width=".98215"/>
 <path d="m27.799 13.798c-0.33293 0-0.60042 0.26749-0.60042 0.60042v3.002h11.903l0.69825-1.1989c0.33639-0.57072 0.53749-1.197 1.2027-1.197v-0.0038h13.798v-0.60234c0-0.33293-0.26749-0.60042-0.60042-0.60042z" fill="#ffffff" stroke-width=".98215"/>
 <rect x="30.2" y="11.398" width="7.2002" height="1.1981" ry=".60095" opacity=".25" stroke-width="3.7796" style="paint-order:stroke markers fill"/>
 <path d="m58.999 31.798-7.2012 7.2012h6.002c0.6646 0 1.1992-0.53657 1.1992-1.2012z" fill="url(#d-3)" opacity=".1" stroke-width="2.2678" style="paint-order:stroke markers fill"/>
 <path class="ColorScheme-Highlight" d="m29.599 10.8c-0.66521 0-0.89277 0.6093-1.1989 1.1989h-1.8031a1.1981 1.1981 0 0 0-1.197 1.2027v4.1991h-1.2027c-0.66376 0-1.197 0.53324-1.197 1.197v19.204c0 0.66376 0.53324 1.1989 1.197 1.1989h33.604c0.66376 0 1.1989-0.53516 1.1989-1.1989v-21.603c0-0.66143-0.53563-1.197-1.2009-1.197h-1.1989v-1.7993a1.1981 1.1981 0 0 0-1.2027-1.2027h-16.2c-0.3515-0.56316-0.5318-1.1989-1.197-1.1989z" fill="#ffffff" opacity=".35" stroke-width=".98215"/>
</svg>

<svg width="64" height="64" xmlns="http://www.w3.org/2000/svg" xmlns:xlink="http://www.w3.org/1999/xlink"><defs><linearGradient id="a"><stop offset="0"/><stop stop-opacity="0" offset="1"/></linearGradient><linearGradient id="d-3" x1="-197.1" x2="-196.91" y1="217.68" y2="219.36" gradientTransform="rotate(-45 -749.252 -341.183) scale(2.2677)" gradientUnits="userSpaceOnUse" xlink:href="#a"/><linearGradient id="linearGradient871" x1="-197.1" x2="-196.91" y1="217.68" y2="219.36" gradientTransform="rotate(-45 -740.145 -311.955) scale(2.2677)" gradientUnits="userSpaceOnUse" xlink:href="#a"/><style id="current-color-scheme" type="text/css">.ColorScheme-Highlight{color:#5294e2}</style></defs><path class="ColorScheme-Highlight" d="M11.599 25.799c-.665 0-.893.61-1.199 1.199H8.597A1.198 1.198 0 0 0 7.4 28.2V32.4H6.197C5.534 32.4 5 32.933 5 33.597V52.8C5 53.464 5.534 54 6.197 54h33.604c.664 0 1.2-.536 1.2-1.2V31.199c0-.662-.536-1.197-1.202-1.197H38.6v-1.8A1.198 1.198 0 0 0 37.398 27h-16.2c-.352-.563-.532-1.2-1.197-1.2z" fill="currentColor" stroke-width=".982"/><path d="M11.599 25.799c-.665 0-.893.61-1.199 1.199H8.597A1.198 1.198 0 0 0 7.4 28.2V32.4h13.702l.698-1.2c.337-.57.538-1.196 1.203-1.196V30h15.598v-1.8a1.198 1.198 0 0 0-1.203-1.202h-16.2c-.351-.563-.532-1.199-1.197-1.199z" opacity=".2" stroke-width=".982"/><path d="M9.8 28.798c-.333 0-.6.267-.6.6V32.4h11.902l.698-1.198c.337-.571.538-1.197 1.203-1.197V30h13.798v-.603c0-.333-.267-.6-.6-.6z" fill="#fff" stroke-width=".982"/><rect x="12.2" y="26.397" width="7.2" height="1.198" ry=".601" opacity=".25" stroke-width="3.78" style="paint-order:stroke markers fill"/><path d="m41 46.798-7.201 7.201H39.8c.664 0 1.199-.536 1.199-1.201z" fill="url(#linearGradient871)" opacity=".1" stroke-width="2.268" style="paint-order:stroke markers fill"/><path class="ColorScheme-Highlight" d="M29.599 10.8c-.665 0-.893.61-1.199 1.199h-1.803a1.198 1.198 0 0 0-1.197 1.203V17.4h-1.203c-.663 0-1.197.533-1.197 1.197v19.204c0 .663.534 1.199 1.197 1.199h33.604c.664 0 1.2-.536 1.2-1.2V16.2c0-.662-.536-1.197-1.202-1.197H56.6v-1.8A1.198 1.198 0 0 0 55.398 12h-16.2c-.352-.563-.532-1.2-1.197-1.2z" fill="currentColor" stroke-width=".982"/><path d="M29.599 10.8c-.665 0-.893.61-1.199 1.199h-1.803a1.198 1.198 0 0 0-1.197 1.203V17.4h13.702l.698-1.2c.337-.57.538-1.196 1.203-1.196V15h15.598v-1.8A1.198 1.198 0 0 0 55.398 12h-16.2c-.351-.563-.532-1.199-1.197-1.199z" opacity=".2" stroke-width=".982"/><path d="M27.799 13.798c-.333 0-.6.267-.6.6V17.4h11.903l.698-1.198c.336-.571.537-1.197 1.203-1.197V15H54.8v-.603c0-.333-.268-.6-.6-.6z" fill="#fff" stroke-width=".982"/><rect x="30.2" y="11.398" width="7.2" height="1.198" ry=".601" opacity=".25" stroke-width="3.78" style="paint-order:stroke markers fill"/><path d="m58.999 31.798-7.201 7.201H57.8c.664 0 1.199-.536 1.199-1.201z" fill="url(#d-3)" opacity=".1" stroke-width="2.268" style="paint-order:stroke markers fill"/><path class="ColorScheme-Highlight" d="M29.599 10.8c-.665 0-.893.61-1.199 1.199h-1.803a1.198 1.198 0 0 0-1.197 1.203V17.4h-1.203c-.663 0-1.197.533-1.197 1.197v19.204c0 .663.534 1.199 1.197 1.199h33.604c.664 0 1.2-.536 1.2-1.2V16.2c0-.662-.536-1.197-1.202-1.197H56.6v-1.8A1.198 1.198 0 0 0 55.398 12h-16.2c-.352-.563-.532-1.2-1.197-1.2z" fill="#fff" opacity=".35" stroke-width=".982"/></svg>
